latex_in_markdown/.watch-latex-md-images/3289f1f3038516158022b6f14b8fe0c9.svg

<ns0:svg xmlns:ns0="http://www.w3.org/2000/svg" xmlns:ns1="http://www.w3.org/1999/xlink" height="7.41222pt" version="1.1" viewBox="23.686 67.3076 19.0423 7.41222" width="19.0423pt" watch_lated_md:baseline="1.9999999986808348e-05" xmlns:watch_lated_md="https://github.com/Quansight/pearu-sandbox/latex_in_markdown/">
<ns0:defs>
<ns0:path d="m3.54638 -5.04412c0.0344309 -0.103293 0.464817 -0.964065 1.10179 -1.51496c0.447601 -0.413171 1.03293 -0.688618 1.70433 -0.688618c0.688618 0 0.929634 0.516463 0.929634 1.20508c0 0.103293 0 0.447601 -0.206585 1.25673l-0.430386 1.77319c-0.137724 0.516463 -0.464817 1.79041 -0.499248 1.97978c-0.0688618 0.258232 -0.172154 0.705833 -0.172154 0.774695c0 0.241016 0.18937 0.430386 0.447601 0.430386c0.516463 0 0.60254 -0.395955 0.757479 -1.01571l1.03293 -4.11449c0.0344309 -0.137724 0.929634 -2.28965 2.82333 -2.28965c0.688618 0 0.929634 0.516463 0.929634 1.20508c0 0.964065 -0.671402 2.84055 -1.05014 3.87347c-0.154939 0.413171 -0.241016 0.636971 -0.241016 0.946849c0 0.774695 0.533679 1.39445 1.36002 1.39445c1.60104 0 2.20358 -2.53067 2.20358 -2.63396c0 -0.0860772 -0.0688618 -0.154939 -0.172154 -0.154939c-0.154939 0 -0.172154 0.0516463 -0.258232 0.344309c-0.395955 1.37724 -1.03293 2.10028 -1.72154 2.10028c-0.172154 0 -0.447601 -0.0172154 -0.447601 -0.56811c0 -0.447601 0.206585 -0.998496 0.275447 -1.18787c0.309878 -0.826341 1.08457 -2.85776 1.08457 -3.85626c0 -1.03293 -0.60254 -1.80762 -1.91091 -1.80762c-1.15343 0 -2.08307 0.654187 -2.77169 1.6699c-0.0516463 -0.929634 -0.619756 -1.6699 -1.91091 -1.6699c-1.53217 0 -2.3413 1.08457 -2.65118 1.51496c-0.0516463 -0.98128 -0.757479 -1.51496 -1.51496 -1.51496c-0.499248 0 -0.895203 0.241016 -1.2223 0.895203c-0.309878 0.619756 -0.550894 1.6699 -0.550894 1.73876s0.0688618 0.154939 0.18937 0.154939c0.137724 0 0.154939 -0.0172154 0.258232 -0.413171c0.258232 -1.01571 0.585325 -2.03142 1.27394 -2.03142c0.395955 0 0.533679 0.275447 0.533679 0.79191c0 0.37874 -0.172154 1.05014 -0.292662 1.58382l-0.482032 1.85927c-0.0688618 0.327093 -0.258232 1.10179 -0.344309 1.41167c-0.120508 0.447601 -0.309878 1.25673 -0.309878 1.3428c0 0.241016 0.18937 0.430386 0.447601 0.430386c0.206585 0 0.447601 -0.103293 0.585325 -0.361524c0.0344309 -0.0860772 0.18937 -0.688618 0.275447 -1.03293l0.37874 -1.54939l0.56811 -2.27244z" id="g0-109" />
<ns0:path d="m2.85776 -0.705833c0 -0.430386 -0.344309 -0.705833 -0.705833 -0.705833c-0.344309 0 -0.705833 0.275447 -0.705833 0.705833s0.344309 0.705833 0.705833 0.705833c0.344309 0 0.705833 -0.275447 0.705833 -0.705833z" id="g1-46" />
</ns0:defs>
<ns0:g id="page1">
<ns0:use x="27.9837" ns1:href="#g0-109" y="74.7198" />
</ns0:g>
</ns0:svg>

<ns0:svg xmlns:ns0="http://www.w3.org/2000/svg" xmlns:ns1="http://www.w3.org/1999/xlink" height="7.41222pt" version="1.1" viewBox="23.686 67.3076 19.0423 7.41222" width="19.0423pt" watch_lated_md:baseline="1.9999999986808348e-05" xmlns:watch_lated_md="https://github.com/Quansight/pearu-sandbox/latex_in_markdown/">
<ns0:defs>
<ns0:path d="M3.54638 -5.04412C3.58081 -5.14742 4.0112 -6.00819 4.64817 -6.55908C5.09577 -6.97225 5.6811 -7.2477 6.3525 -7.2477C7.04112 -7.2477 7.28213 -6.73124 7.28213 -6.04262C7.28213 -5.93933 7.28213 -5.59502 7.07555 -4.78589L6.64516 -3.0127C6.50744 -2.49624 6.18034 -1.2223 6.14591 -1.03293C6.07705 -0.774695 5.97376 -0.327093 5.97376 -0.258232C5.97376 -0.0172154 6.16313 0.172154 6.42136 0.172154C6.93782 0.172154 7.0239 -0.223801 7.17884 -0.843557L8.21177 -4.95805C8.2462 -5.09577 9.1414 -7.2477 11.0351 -7.2477C11.7237 -7.2477 11.9647 -6.73124 11.9647 -6.04262C11.9647 -5.07856 11.2933 -3.20207 10.9146 -2.16915C10.7597 -1.75597 10.6736 -1.53217 10.6736 -1.2223C10.6736 -0.447601 11.2073 0.172154 12.0336 0.172154C13.6346 0.172154 14.2372 -2.35852 14.2372 -2.46181C14.2372 -2.54789 14.1683 -2.61675 14.065 -2.61675C13.9101 -2.61675 13.8929 -2.5651 13.8068 -2.27244C13.4108 -0.895203 12.7739 -0.172154 12.0852 -0.172154C11.9131 -0.172154 11.6376 -0.18937 11.6376 -0.740264C11.6376 -1.18787 11.8442 -1.73876 11.9131 -1.92813C12.223 -2.75447 12.9977 -4.78589 12.9977 -5.78439C12.9977 -6.81731 12.3951 -7.59201 11.0867 -7.59201C9.93331 -7.59201 9.00368 -6.93782 8.31506 -5.92211C8.26341 -6.85175 7.6953 -7.59201 6.40414 -7.59201C4.87197 -7.59201 4.06284 -6.50744 3.75297 -6.07705C3.70132 -7.05833 2.99549 -7.59201 2.23801 -7.59201C1.73876 -7.59201 1.3428 -7.35099 1.01571 -6.69681C0.705833 -6.07705 0.464817 -5.02691 0.464817 -4.95805S0.533679 -4.80311 0.654187 -4.80311C0.79191 -4.80311 0.809126 -4.82032 0.912418 -5.21628C1.17065 -6.23199 1.49774 -7.2477 2.18636 -7.2477C2.58232 -7.2477 2.72004 -6.97225 2.72004 -6.45579C2.72004 -6.07705 2.54789 -5.40565 2.42738 -4.87197L1.94534 -3.0127C1.87648 -2.68561 1.68711 -1.91091 1.60104 -1.60104C1.48053 -1.15343 1.29116 -0.344309 1.29116 -0.258232C1.29116 -0.0172154 1.48053 0.172154 1.73876 0.172154C1.94534 0.172154 2.18636 0.0688618 2.32408 -0.18937C2.35852 -0.275447 2.51345 -0.877987 2.59953 -1.2223L2.97827 -2.77169L3.54638 -5.04412Z" id="g0-109" />
<ns0:path d="M2.85776 -0.705833C2.85776 -1.13622 2.51345 -1.41167 2.15193 -1.41167C1.80762 -1.41167 1.4461 -1.13622 1.4461 -0.705833S1.79041 0 2.15193 0C2.49624 0 2.85776 -0.275447 2.85776 -0.705833Z" id="g1-46" />
</ns0:defs>
<ns0:g id="page1">
<ns0:use x="27.9837" ns1:href="#g0-109" y="74.7198" />
</ns0:g>
</ns0:svg>
